src/icons/brands/yith-woocommerce-sales-funnel.svg

<svg fill="none" viewBox="0 0 24 24" xmlns="http://www.w3.org/2000/svg"><path clip-rule="evenodd" d="m23.772 6.691v-6.691h-6.641v6.691zm0 1.963v6.692h-6.641v-6.692zm-17.134 15.346v-6.692h-6.638v6.692zm8.567-6.692v6.692h-6.641v-6.692zm8.567 0v6.692h-6.641v-6.692zm-8.567-1.962v-6.692h-6.641v6.692zm-8.567-6.692v6.692h-6.638v-6.692zm8.562-8.654v6.691h-6.636v-6.691zm-8.562 6.691v-6.691h-6.638v6.691z" fill="#196bde" fill-rule="evenodd"/></svg>

<svg viewBox="0 0 24 24" fill="none" xmlns="http://www.w3.org/2000/svg">
<path fill-rule="evenodd" clip-rule="evenodd" d="M23.772 6.691V0H17.131V6.691H23.772ZM23.772 8.654V15.346H17.131V8.654H23.772ZM6.638 24V17.308H0V24H6.638ZM15.205 17.308V24H8.564V17.308H15.205ZM23.772 17.308V24H17.131V17.308H23.772ZM15.205 15.346V8.654H8.564V15.346H15.205ZM6.638 8.654V15.346H0V8.654H6.638ZM15.2 0V6.691H8.564V0H15.2ZM6.638 6.691V0H0V6.691H6.638Z" fill="#196BDE"/>
</svg>
